Newaita-dark/actions/32/format-text-blockquote.svg

<?xml version="1.0" encoding="UTF-8"?>
<svg xmlns="http://www.w3.org/2000/svg" xmlns:xlink="http://www.w3.org/1999/xlink" width="32pt" height="32pt" viewBox="0 0 32 32" version="1.1">
<g id="surface1">
<path style=" stroke:none;fill-rule:nonzero;fill:rgb(47.058824%,56.470591%,61.176473%);fill-opacity:1;" d="M 9.929688 23.042969 C 12.496094 23.042969 14.5625 20.976562 14.5625 18.410156 C 14.5625 15.847656 12.496094 13.78125 9.929688 13.78125 L 9.929688 8.1875 C 7.242188 9.195312 5.300781 13.519531 5.300781 17.089844 L 5.300781 17.75 C 5.300781 17.878906 5.304688 18.011719 5.308594 18.140625 C 5.304688 18.230469 5.300781 18.320312 5.300781 18.410156 C 5.300781 20.976562 7.367188 23.042969 9.929688 23.042969 Z M 9.929688 23.042969 "/>
<path style=" stroke:none;fill-rule:nonzero;fill:rgb(47.058824%,56.470591%,61.176473%);fill-opacity:1;" d="M 21.832031 23.042969 C 24.394531 23.042969 26.460938 20.976562 26.460938 18.410156 C 26.460938 15.847656 24.394531 13.78125 21.832031 13.78125 L 21.832031 8.1875 C 19.140625 9.195312 17.199219 13.519531 17.199219 17.089844 L 17.199219 17.75 C 17.199219 17.878906 17.203125 18.011719 17.207031 18.140625 C 17.203125 18.230469 17.199219 18.320312 17.199219 18.410156 C 17.199219 20.976562 19.265625 23.042969 21.832031 23.042969 Z M 21.832031 23.042969 "/>
</g>
</svg>

<svg xmlns="http://www.w3.org/2000/svg" width="32pt" height="32pt" viewBox="0 0 32 32"><g fill="#78909c"><path d="M9.93 23.043a4.623 4.623 0 0 0 4.633-4.633 4.622 4.622 0 0 0-4.633-4.629V8.187C7.242 9.195 5.3 13.52 5.3 17.09v.66c0 .129.005.262.009.39-.004.09-.008.18-.008.27a4.622 4.622 0 0 0 4.629 4.633zm0 0M21.832 23.043a4.622 4.622 0 0 0 4.629-4.633 4.621 4.621 0 0 0-4.629-4.629V8.187c-2.691 1.008-4.633 5.333-4.633 8.903v.66c0 .129.004.262.008.39-.004.09-.008.18-.008.27a4.623 4.623 0 0 0 4.633 4.633zm0 0"/></g></svg>
